!!!COM: Music21
!!!OTL: Jota de Tui
!!!OMV: pezas_jotas_jota-de-tui_jota-de-tui-partitura.musicxml
**kern
*I"Gaita
*I'Bag
*clefG^2
*k[]
*M3/4
*MM230
=1
!LO:TX:a:t=[quarter]=230
4r
8ccL
8ddJ
8eeL
8ffJ
=||
8ggL
8ffJ
8eeL
8ddJ
[4cc
=
4cc]
8cccL
8bbJ
8aaL
8ggJ
=
8aaL
8ggJ
8ffL
8eeJ
[4dd
=
4dd]
8bL
8ccJ
8ddL
8eeJ
=
8ffL
8eeJ
8ddL
8ccJ
[4b
=
4b]
4gg
4aa
=
4gg
8ggL
8eeJ
[4cc
!!linebreak:original
=
4cc]
8ccL
8ddJ
8eeL
8ffJ
=||
8ggL
8ffJ
8eeL
8ddJ
[4cc
=
4cc]
8cccL
8bbJ
8aaL
8ggJ
=
8aaL
8ggJ
8ffL
8eeJ
[4dd
=
4dd]
8bL
8ccJ
8ddL
8eeJ
=
8ffL
8eeJ
8ddL
8ccJ
[4b
=
4b]
4gg
4aa
=
4gg
8ggL
8eeJ
4cc
=
2cc
4aa
!!linebreak:original
=
4ff
4ff
4gg
=
4aa
2bb
=
4aa
4gg
4ff
=
2ee
4gg
=||
4ee
4ee
4ff
=
4gg
2aa
=
4gg
4ff
4ee
=
2dd
4aa
=
4ff
4ff
4gg
!!linebreak:original
=
4aa
2bb
=
4aa
4gg
4ff
=
2ee
4gg
=||
4ee
4ee
4ff
=
4gg
2aa
=
4gg
4ff
4ee
=
2dd
4aa
=
4ff
4ff
4gg
!!linebreak:original
=
4aa
2bb
=
4aa
4gg
4ee
=
4.cc
8ee
[4cc
=
8ccL]
8eeJ
8ccL
8eeJ
8ccL
8eeJ
=||
4.cc
8ee
[4cc
=
8ccL]
8eeJ
8ccL
8eeJ
8ccL
8eeJ
=
4.dd
8ff
[4dd
!!linebreak:original
=
8ddL]
8ffJ
8ddL
8ffJ
8ddL
8ffJ
=
4.dd
8ff
[4dd
=
8ddL]
8ffJ
8ddL
8ffJ
8ddL
8ffJ
=
8bbL
8aaJ
8ggL
8ffJ
8eeL
8ddJ
=
4.cc
8ee
[4cc
=
8ccL]
8eeJ
8ccL
8eeJ
8ccL
8eeJ
=||
4.cc
8ee
[4cc
=
8ccL]
8eeJ
8ccL
8eeJ
8ccL
8eeJ
!!linebreak:original
=
4.dd
8ff
[4dd
!!linebreak:original
=
8ddL]
8ffJ
8ddL
8ffJ
8ddL
8ffJ
=
4.dd
8ff
[4dd
=
8ddL]
8ffJ
8ddL
8ffJ
8ddL
8ffJ
=
8bbL
8aaJ
8ggL
8ffJ
8eeL
8ddJ
=||
[2.cc
!!linebreak:original
=
4cc]
8ccL
8ddJ
8eeL
8ffJ
=||
[2.cc
=
8cc]
8r
2r
==
*-
